**kern	**silbe	**harmony	**phrase	**leadinstrument	**rhyme	**timestamp	**harte
*ICvox	*	*M4/4	*	*	*	*	*M4/4
*VRlead	*	*	*	*	*	*	*
*Hstimme	*	*	*	*	*	*	*
*e:	*	*e:	*e:	*e:	*	*e:	*e:
*M4/4	*	*	*	*	*	*	*
*clefC3	*	*	*	*	*	*	*
r;	.	1r;	.	r	.	0	N.C.
=1	=1	=1	=1	=1	=1	=1	=1
*>Letter>A	*>Letter>A	*>Letter>A	*>Letter>A	*>Letter>A	*>Letter>A	*>Letter>A	*>Letter>A
*>Label>Intro	*>Label>Intro	*>Label>Intro	*>Label>Intro	*>Label>Intro	*>Label>Intro	*>Label>Intro	*>Label>Intro
1r	.	1Emm	newline	guitar	.	0.348	E:min7
=2	=2	=2	=2	=2	=2	=2	=2
1r	.	2Emm	.	guitar	.	2.351	E:min9
.	.	2Emm	.	guitar	.	3.353	E:min7
=3	=3	=3	=3	=3	=3	=3	=3
1r	.	1Emm	.	guitar	.	4.354	E:min7
=4	=4	=4	=4	=4	=4	=4	=4
1r	.	2Emm	.	guitar	.	6.357	E:min9
.	.	2Emm	.	guitar	.	7.359	E:min7
=5	=5	=5	=5	=5	=5	=5	=5
1r	.	1Emm	newline	guitar	.	8.36	E:min7
=6	=6	=6	=6	=6	=6	=6	=6
1r	.	2Emm	.	guitar	.	10.285	E:min9
.	.	2Emm	.	guitar	.	11.248	E:min7
=7	=7	=7	=7	=7	=7	=7	=7
1r	.	1Emm	.	guitar	.	12.21	E:min7
=8	=8	=8	=8	=8	=8	=8	=8
2r	.	2Emm	.	guitar	.	14.136	E:min9
8r	.	2Emm	.	guitar	.	15.098	E:min7
8B	I	.	.	.	.	.	.
8B	get	.	.	.	.	.	.
8B	a	.	.	.	.	.	.
=9	=9	=9	=9	=9	=9	=9	=9
*>Letter>B	*>Letter>B	*>Letter>B	*>Letter>B	*>Letter>B	*>Letter>B	*>Letter>B	*>Letter>B
*>Label>Verse	*>Label>Verse	*>Label>Verse	*>Label>Verse	*>Label>Verse	*>Label>Verse	*>Label>Verse	*>Label>Verse
4d	con-	1Emm	newline	voice	.	16.061	E:min7
8e	-stant	.	.	.	.	.	.
[8e	bu	.	.	.	.	.	.
4e]	_	.	.	.	.	.	.
8d	sy	.	.	.	.	.	.
8e	sig-	.	.	.	.	.	.
=10	=10	=10	=10	=10	=10	=10	=10
8~E	-nal	2Emm	.	voice	.	17.962	E:min9
8r	.	.	.	.	.	.	.
4r	.	.	.	.	.	.	.
4r	.	2Emm	.	voice	.	18.913	E:min7
8G	when	.	.	.	.	.	.
8A	I	.	.	.	.	.	.
=11	=11	=11	=11	=11	=11	=11	=11
8A#q	_	.	.	.	.	.	.
4B	call	1Emm	.	voice	.	19.864	E:min7
8A	you	.	.	.	.	.	.
8Gq	_	.	.	.	.	.	.
[8A	on	.	.	.	.	.	.
4A]	_	.	.	.	.	.	.
8G	the	.	.	.	.	.	.
8G	phone	.	.	.	A	.	.
=12	=12	=12	=12	=12	=12	=12	=12
4E	_	2Emm	.	voice	.	21.765	E:min9
4r	.	.	.	.	.	.	.
8r	.	2Emm	.	voice	.	22.716	E:min7
8B	I	.	.	.	.	.	.
8B	get	.	.	.	.	.	.
8B	a	.	.	.	.	.	.
=13	=13	=13	=13	=13	=13	=13	=13
4d	strong,	1Emm	newline	voice	.	23.667	E:min7
8e	un-	.	.	.	.	.	.
8dq	_	.	.	.	.	.	.
[8e	-ea	.	.	.	.	.	.
4e]	_	.	.	.	.	.	.
8d	sy	.	.	.	.	.	.
8e	fee	.	.	.	.	.	.
=14	=14	=14	=14	=14	=14	=14	=14
8d	_	2Emm	.	voice	.	25.564	E:min9
4e	ling	.	.	.	.	.	.
8r	.	.	.	.	.	.	.
8r	.	2Emm	.	voice	.	26.513	E:min7
8E	you're	.	.	.	.	.	.
4G	not	.	.	.	.	.	.
=15	=15	=15	=15	=15	=15	=15	=15
8e	sit-	1Emm	.	voice	.	27.462	E:min7
8dq	_	.	.	.	.	.	.
4.e	-ting	.	.	.	.	.	.
8Aq	_	.	.	.	.	.	.
8B	there	.	.	.	.	.	.
8A	_	.	.	.	.	.	.
8G	a-	.	.	.	.	.	.
8G	-lone	.	.	.	A	.	.
=16	=16	=16	=16	=16	=16	=16	=16
4E	_	2Emm	.	voice	.	29.36	E:min9
4r	.	.	.	.	.	.	.
8r	.	2Emm	.	voice	.	30.308	E:min7
8B	I'm	.	.	.	.	.	.
8e	ha-	.	.	.	.	.	.
8d	-ving	.	.	.	.	.	.
=17	=17	=17	=17	=17	=17	=17	=17
4e	nas-	1Amm	newline	voice	.	31.257	A:min7
8e	-ty,	.	.	.	.	.	.
[8e	nas	.	.	.	.	.	.
8e]	_	.	.	.	.	.	.
4e	ty	.	.	.	.	.	.
8e	vi	.	.	.	.	.	.
=18	=18	=18	=18	=18	=18	=18	=18
8d	_	1Amm	.	voice	.	33.166	A:min7
4e	sions	.	.	.	.	.	.
8r	.	.	.	.	.	.	.
8r	.	.	.	.	.	.	.
8B	and	.	.	.	.	.	.
8d	ba-	.	.	.	.	.	.
8e	-by,	.	.	.	.	.	.
=19	=19	=19	=19	=19	=19	=19	=19
8dq	_	.	.	.	.	.	.
4e	you're	1Emm	.	voice	.	35.075	E:min7
8d	in	.	.	.	.	.	.
8A	ev-	.	.	.	.	.	.
8G	-'ry	.	.	.	.	.	.
8Aq	_	.	.	.	.	.	.
4B	one,	.	.	.	B	.	.
8G	y-	.	.	.	.	.	.
=20	=20	=20	=20	=20	=20	=20	=20
16A	-yeah	1Emm	.	voice	.	36.985	E:min7
16G	_	.	.	.	.	.	.
8E	_	.	.	.	.	.	.
4r	.	.	.	.	.	.	.
4r	.	.	.	.	.	.	.
8B	And	.	.	.	.	.	.
8B	I'm	.	.	.	.	.	.
=21	=21	=21	=21	=21	=21	=21	=21
8d	so	1Amm	newline	voice	.	38.894	A:min7
8e	a-	.	.	.	.	.	.
[4e	-fraid	.	.	.	.	.	.
8e]	_	.	.	.	.	.	.
8d	I'm	.	.	.	.	.	.
8e	gon-	.	.	.	.	.	.
8d	-na	.	.	.	.	.	.
=22	=22	=22	=22	=22	=22	=22	=22
8g	find	1Amm	.	voice	.	40.802	A:min7
8e	you	.	.	.	.	.	.
4e	with	.	.	.	.	.	.
4r	.	.	.	.	.	.	.
8r	.	.	.	.	.	.	.
8E	a	.	.	.	.	.	.
=23	=23	=23	=23	=23	=23	=23	=23
8Aq	_	.	.	.	.	.	.
4B-	so-	2B-M	.	voice	.	42.71	B-:1
8A	-called	.	.	.	.	.	.
8G	_	.	.	.	.	.	.
8A	smo	2Amm	.	voice	.	43.664	A:1
8G	_	.	.	.	.	.	.
8E	king	.	.	.	.	.	.
8G	gun	.	.	.	B	.	.
=24	=24	=24	=24	=24	=24	=24	=24
*>Letter>A	*>Letter>A	*>Letter>A	*>Letter>A	*>Letter>A	*>Letter>A	*>Letter>A	*>Letter>A
*>Label>Trans	*>Label>Trans	*>Label>Trans	*>Label>Trans	*>Label>Trans	*>Label>Trans	*>Label>Trans	*>Label>Trans
4.E	_	1Emm	newline	guitar	.	44.618	E:min7
8r	.	.	.	.	.	.	.
2r	.	.	.	.	.	.	.
=25	=25	=25	=25	=25	=25	=25	=25
1r	.	2Emm	.	guitar	.	46.531	E:min9
.	.	2Emm	.	guitar	.	47.487	E:min7
=26	=26	=26	=26	=26	=26	=26	=26
1r	.	1Emm	.	guitar	.	48.444	E:min7
=27	=27	=27	=27	=27	=27	=27	=27
1r	.	2Emm	.	guitar	.	50.357	E:min9
.	.	2Emm	.	guitar	.	51.314	E:min7
=28	=28	=28	=28	=28	=28	=28	=28
*>Letter>B	*>Letter>B	*>Letter>B	*>Letter>B	*>Letter>B	*>Letter>B	*>Letter>B	*>Letter>B
*>Label>Verse	*>Label>Verse	*>Label>Verse	*>Label>Verse	*>Label>Verse	*>Label>Verse	*>Label>Verse	*>Label>Verse
8aq	_	.	.	.	.	.	.
8b	May-	1Emm	newline	voice	.	52.27	E:min7
8a	-be	.	.	.	.	.	.
8g	you	.	.	.	.	.	.
8gq	_	.	.	.	.	.	.
[8a	wan	.	.	.	.	.	.
4a]	_	.	.	.	.	.	.
8g	na	.	.	.	.	.	.
16g	end	.	.	.	.	.	.
[16e	_	.	.	.	.	.	.
=29	=29	=29	=29	=29	=29	=29	=29
8e]	_	2Emm	.	voice	.	54.175	E:min9
8e	it	.	.	.	.	.	.
4r	.	.	.	.	.	.	.
8r	.	2Emm	.	voice	.	55.127	E:min7
8E	You've	.	.	.	.	.	.
8G	had	.	.	.	.	.	.
8A	your	.	.	.	.	.	.
=30	=30	=30	=30	=30	=30	=30	=30
8Aq	_	.	.	.	.	.	.
4B	fill	1Emm	.	voice	.	56.079	E:min7
8A	with	.	.	.	.	.	.
8Gq	_	.	.	.	.	.	.
[8A	my	.	.	.	.	.	.
8A]	_	.	.	.	.	.	.
8G	kin-	.	.	.	.	.	.
8G	-da	.	.	.	.	.	.
8G	fun	.	.	.	B	.	.
=31	=31	=31	=31	=31	=31	=31	=31
4E	_	2Emm	.	voice	.	57.984	E:min9
4r	.	.	.	.	.	.	.
4r	.	2Emm	.	voice	.	58.936	E:min7
8B	But	.	.	.	.	.	.
8B	you	.	.	.	.	.	.
=32	=32	=32	=32	=32	=32	=32	=32
4g	don't	1Emm	newline	voice	.	59.888	E:min7
8e	know	.	.	.	.	.	.
[8e	how	.	.	.	.	.	.
4e]	_	.	.	.	.	.	.
8d	to	.	.	.	.	.	.
8e	tell	.	.	.	.	.	.
=33	=33	=33	=33	=33	=33	=33	=33
8d	_	2Emm	.	voice	.	61.789	E:min9
8e	me	.	.	.	.	.	.
4r	.	.	.	.	.	.	.
4r	.	2Emm	.	voice	.	62.739	E:min7
8G	and	.	.	.	.	.	.
8A	you	.	.	.	.	.	.
=34	=34	=34	=34	=34	=34	=34	=34
8A	know	1Emm	.	voice	.	63.689	E:min7
8B	_	.	.	.	.	.	.
8A	that	.	.	.	.	.	.
8G	I'm	.	.	.	.	.	.
8A	not	.	.	.	.	.	.
4G	that	.	.	.	.	.	.
8G	dumb	.	.	.	B	.	.
=35	=35	=35	=35	=35	=35	=35	=35
4E	_	2Emm	.	voice	.	65.59	E:min9
4r	.	.	.	.	.	.	.
4r	.	2Emm	.	voice	.	66.54	E:min7
8B	I	.	.	.	.	.	.
8B	put	.	.	.	.	.	.
=36	=36	=36	=36	=36	=36	=36	=36
8e	one	1Amm	newline	voice	.	67.49	A:min7
8d	and	.	.	.	.	.	.
[4e	two	.	.	.	.	.	.
4e]	_	.	.	.	.	.	.
8d	to-	.	.	.	.	.	.
8e	-ge	.	.	.	.	.	.
=37	=37	=37	=37	=37	=37	=37	=37
8B	_	1Amm	.	voice	.	69.395	A:min7
8B	ther	.	.	.	.	.	.
4r	.	.	.	.	.	.	.
4r	.	.	.	.	.	.	.
8E	and	.	.	.	.	.	.
8G	you	.	.	.	.	.	.
=38	=38	=38	=38	=38	=38	=38	=38
8B	know	1Emm	.	voice	.	71.299	E:min7
8G	that's	.	.	.	.	.	.
8A	not	.	.	.	.	.	.
8G	an	.	.	.	.	.	.
8A	e	.	.	.	.	.	.
8G	_	.	.	.	.	.	.
8E	ven	.	.	.	.	.	.
[8G	sum	.	.	.	B	.	.
=39	=39	=39	=39	=39	=39	=39	=39
4G]	_	1Emm	.	voice	.	73.204	E:min7
4r	.	.	.	.	.	.	.
4r	.	.	.	.	.	.	.
8B	and	.	.	.	.	.	.
8B	I	.	.	.	.	.	.
=40	=40	=40	=40	=40	=40	=40	=40
8f#q	_	.	.	.	.	.	.
4g	know	1Amm	newline	voice	.	75.108	A:min7
8e	just	.	.	.	.	.	.
[8e	where	.	.	.	.	.	.
4.e]	_	.	.	.	.	.	.
8d	to	.	.	.	.	.	.
=41	=41	=41	=41	=41	=41	=41	=41
8e	catch	1Amm	.	voice	.	77.013	A:min7
8d	you	.	.	.	.	.	.
4e	with	.	.	.	.	.	.
4r	.	.	.	.	.	.	.
8r	.	.	.	.	.	.	.
8E	that	.	.	.	.	.	.
=42	=42	=42	=42	=42	=42	=42	=42
8Aq	_	.	.	.	.	.	.
4B-	well-	2B-M	.	voice	.	78.918	B-:1
8A	-known	.	.	.	.	.	.
8G	_	.	.	.	.	.	.
8A	smo	2Amm	.	voice	.	79.871	A:1
8G	_	.	.	.	.	.	.
8E	king	.	.	.	.	.	.
8G	gun	.	.	.	B	.	.
=43	=43	=43	=43	=43	=43	=43	=43
*>Letter>A	*>Letter>A	*>Letter>A	*>Letter>A	*>Letter>A	*>Letter>A	*>Letter>A	*>Letter>A
*>Label>Trans	*>Label>Trans	*>Label>Trans	*>Label>Trans	*>Label>Trans	*>Label>Trans	*>Label>Trans	*>Label>Trans
4E	_	1Emm	newline	guitar	.	80.823	E:min7
4r	.	.	.	.	.	.	.
2r	.	.	.	.	.	.	.
=44	=44	=44	=44	=44	=44	=44	=44
1r	.	2Emm	.	guitar	.	82.728	E:min9
.	.	2Emm	.	guitar	.	83.681	E:min7
=45	=45	=45	=45	=45	=45	=45	=45
1r	.	1Emm	.	guitar	.	84.633	E:min7
=46	=46	=46	=46	=46	=46	=46	=46
1r	.	2Emm	.	guitar	.	86.538	E:min9
.	.	2Emm	.	guitar	.	87.491	E:min7
=47	=47	=47	=47	=47	=47	=47	=47
*>Letter>B2	*>Letter>B2	*>Letter>B2	*>Letter>B2	*>Letter>B2	*>Letter>B2	*>Letter>B2	*>Letter>B2
*>Label>Solo	*>Label>Solo	*>Label>Solo	*>Label>Solo	*>Label>Solo	*>Label>Solo	*>Label>Solo	*>Label>Solo
1r	.	1Emm	newline	guitar	.	88.443	E:min7
=48	=48	=48	=48	=48	=48	=48	=48
1r	.	2Emm	.	guitar	.	90.353	E:min9
.	.	2Emm	.	guitar	.	91.308	E:min7
=49	=49	=49	=49	=49	=49	=49	=49
1r	.	1Emm	.	guitar	.	92.263	E:min7
=50	=50	=50	=50	=50	=50	=50	=50
1r	.	2Emm	.	guitar	.	94.173	E:min9
.	.	2Emm	.	guitar	.	95.128	E:min7
=51	=51	=51	=51	=51	=51	=51	=51
1r	.	1Emm	newline	guitar	.	96.083	E:min7
=52	=52	=52	=52	=52	=52	=52	=52
1r	.	2Emm	.	guitar	.	97.988	E:min9
.	.	2Emm	.	guitar	.	98.94	E:min7
=53	=53	=53	=53	=53	=53	=53	=53
1r	.	1Emm	.	guitar	.	99.892	E:min7
=54	=54	=54	=54	=54	=54	=54	=54
1r	.	2Emm	.	guitar	.	101.797	E:min9
.	.	2Emm	.	guitar	.	102.749	E:min7
=55	=55	=55	=55	=55	=55	=55	=55
1r	.	1Amm	newline	guitar	.	103.701	A:min7
=56	=56	=56	=56	=56	=56	=56	=56
1r	.	1Amm	.	guitar	.	105.624	A:min7
=57	=57	=57	=57	=57	=57	=57	=57
1r	.	1Emm	.	guitar	.	107.547	E:min7
=58	=58	=58	=58	=58	=58	=58	=58
1r	.	1Emm	.	guitar	.	109.47	E:min7
=59	=59	=59	=59	=59	=59	=59	=59
1r	.	1Amm	newline	guitar	.	111.394	A:min7
=60	=60	=60	=60	=60	=60	=60	=60
1r	.	1Amm	.	guitar	.	113.27	A:min7
=61	=61	=61	=61	=61	=61	=61	=61
1r	.	2B-M	.	guitar	.	115.146	B-:1
.	.	2Amm	.	guitar	.	116.084	A:1
=62	=62	=62	=62	=62	=62	=62	=62
*>Letter>A	*>Letter>A	*>Letter>A	*>Letter>A	*>Letter>A	*>Letter>A	*>Letter>A	*>Letter>A
*>Label>Trans	*>Label>Trans	*>Label>Trans	*>Label>Trans	*>Label>Trans	*>Label>Trans	*>Label>Trans	*>Label>Trans
1r	.	1Emm	newline	guitar	.	117.022	E:min7
=63	=63	=63	=63	=63	=63	=63	=63
1r	.	2Emm	.	guitar	.	118.934	E:min9
.	.	2Emm	.	guitar	.	119.891	E:min7
=64	=64	=64	=64	=64	=64	=64	=64
1r	.	1Emm	.	guitar	.	120.847	E:min7
=65	=65	=65	=65	=65	=65	=65	=65
1r	.	2Emm	.	guitar	.	122.759	E:min9
.	.	2Emm	.	guitar	.	123.716	E:min7
=66	=66	=66	=66	=66	=66	=66	=66
*>Letter>B2	*>Letter>B2	*>Letter>B2	*>Letter>B2	*>Letter>B2	*>Letter>B2	*>Letter>B2	*>Letter>B2
*>Label>Solo	*>Label>Solo	*>Label>Solo	*>Label>Solo	*>Label>Solo	*>Label>Solo	*>Label>Solo	*>Label>Solo
1r	.	1Emm	newline	guitar	.	124.672	E:min7
=67	=67	=67	=67	=67	=67	=67	=67
1r	.	2Emm	.	guitar	.	126.587	E:min9
.	.	2Emm	.	guitar	.	127.545	E:min7
=68	=68	=68	=68	=68	=68	=68	=68
1r	.	1Emm	.	guitar	.	128.502	E:min7
=69	=69	=69	=69	=69	=69	=69	=69
1r	.	2Emm	.	guitar	.	130.418	E:min9
.	.	2Emm	.	guitar	.	131.375	E:min7
=70	=70	=70	=70	=70	=70	=70	=70
1r	.	1Emm	newline	guitar	.	132.333	E:min7
=71	=71	=71	=71	=71	=71	=71	=71
1r	.	2Emm	.	guitar	.	134.239	E:min9
.	.	2Emm	.	guitar	.	135.193	E:min7
=72	=72	=72	=72	=72	=72	=72	=72
1r	.	1Emm	.	guitar	.	136.146	E:min7
=73	=73	=73	=73	=73	=73	=73	=73
1r	.	2Emm	.	guitar	.	138.052	E:min9
.	.	2Emm	.	guitar	.	139.006	E:min7
=74	=74	=74	=74	=74	=74	=74	=74
1r	.	1Amm	newline	guitar	.	139.959	A:min7
=75	=75	=75	=75	=75	=75	=75	=75
1r	.	1Amm	.	guitar	.	141.869	A:min7
=76	=76	=76	=76	=76	=76	=76	=76
1r	.	1Emm	.	guitar	.	143.779	E:min7
=77	=77	=77	=77	=77	=77	=77	=77
1r	.	1Emm	.	guitar	.	145.688	E:min7
=78	=78	=78	=78	=78	=78	=78	=78
1r	.	1Amm	newline	guitar	.	147.598	A:min7
=79	=79	=79	=79	=79	=79	=79	=79
1r	.	1Amm	.	guitar	.	149.508	A:min7
=80	=80	=80	=80	=80	=80	=80	=80
1r	.	2B-M	.	guitar	.	151.418	B-:1
.	.	2Amm	.	guitar	.	152.373	A:1
=81	=81	=81	=81	=81	=81	=81	=81
*>Letter>A	*>Letter>A	*>Letter>A	*>Letter>A	*>Letter>A	*>Letter>A	*>Letter>A	*>Letter>A
*>Label>Trans	*>Label>Trans	*>Label>Trans	*>Label>Trans	*>Label>Trans	*>Label>Trans	*>Label>Trans	*>Label>Trans
1r	.	1Emm	newline	guitar	.	153.329	E:min7
=82	=82	=82	=82	=82	=82	=82	=82
1r	.	2Emm	.	guitar	.	155.232	E:min9
.	.	2Emm	.	guitar	.	156.183	E:min7
=83	=83	=83	=83	=83	=83	=83	=83
1r	.	1Emm	.	guitar	.	157.135	E:min7
=84	=84	=84	=84	=84	=84	=84	=84
2r	.	2Emm	.	guitar	.	159.038	E:min9
4r	.	2Emm	.	guitar	.	159.99	E:min7
8r	.	.	.	.	.	.	.
8B	I'm	.	.	.	.	.	.
=85	=85	=85	=85	=85	=85	=85	=85
*>Letter>B	*>Letter>B	*>Letter>B	*>Letter>B	*>Letter>B	*>Letter>B	*>Letter>B	*>Letter>B
*>Label>Verse	*>Label>Verse	*>Label>Verse	*>Label>Verse	*>Label>Verse	*>Label>Verse	*>Label>Verse	*>Label>Verse
8b	stan	1Emm	newline	voice	.	160.942	E:min7
8a	_	.	.	.	.	.	.
8g	ding	.	.	.	.	.	.
8gq	_	.	.	.	.	.	.
[8a	here,	.	.	.	.	.	.
4a]	_	.	.	.	.	.	.
8g	be-	.	.	.	.	.	.
8g	-wil	.	.	.	.	.	.
=86	=86	=86	=86	=86	=86	=86	=86
8e	_	2Emm	.	voice	.	162.849	E:min9
8e	dered	.	.	.	.	.	.
4r	.	.	.	.	.	.	.
8r	.	2Emm	.	voice	.	163.803	E:min7
8E	I	.	.	.	.	.	.
8G	can't	.	.	.	.	.	.
8A	re-	.	.	.	.	.	.
=87	=87	=87	=87	=87	=87	=87	=87
8Aq	_	.	.	.	.	.	.
8B	-mem-	1Emm	.	voice	.	164.757	E:min7
8A	-ber	.	.	.	.	.	.
8G	just	.	.	.	.	.	.
8Gq	_	.	.	.	.	.	.
[8A	what	.	.	.	.	.	.
8A]	_	.	.	.	.	.	.
4G	I've	.	.	.	.	.	.
8G	done	.	.	.	B	.	.
=88	=88	=88	=88	=88	=88	=88	=88
4E	_	2Emm	.	voice	.	166.664	E:min9
4r	.	.	.	.	.	.	.
4r	.	2Emm	.	voice	.	167.618	E:min7
8b	I	.	.	.	.	.	.
8g	can	.	.	.	.	.	.
=89	=89	=89	=89	=89	=89	=89	=89
8aq	_	.	.	.	.	.	.
4b	hear	1Emm	newline	voice	.	168.572	E:min7
8g	the	.	.	.	.	.	.
8gq	_	.	.	.	.	.	.
[8a	si	.	.	.	.	.	.
8a]	_	.	.	.	.	.	.
8g	rens	.	.	.	.	.	.
8e	s	.	.	.	.	.	.
8e	whi	.	.	.	.	.	.
=90	=90	=90	=90	=90	=90	=90	=90
8d	_	2Emm	.	voice	.	170.479	E:min9
4e	ning	.	.	.	.	.	.
8r	.	.	.	.	.	.	.
8r	.	2Emm	.	voice	.	171.432	E:min7
8B	my	.	.	.	.	.	.
8dq	_	.	.	.	.	.	.
4e	eyes	.	.	.	.	.	.
=91	=91	=91	=91	=91	=91	=91	=91
8dq	_	.	.	.	.	.	.
4e	blin-	1Emm	.	voice	.	172.385	E:min7
8d	-ded	.	.	.	.	.	.
16A	by	.	.	.	.	.	.
16B	_	.	.	.	.	.	.
4A	_	.	.	.	.	.	.
8G	the	.	.	.	.	.	.
8G	sun	.	.	.	B	.	.
=92	=92	=92	=92	=92	=92	=92	=92
4E	_	2Emm	.	voice	.	174.292	E:min9
4r	.	.	.	.	.	.	.
4r	.	2Emm	.	voice	.	175.245	E:min7
8r	.	.	.	.	.	.	.
8B	I	.	.	.	.	.	.
=93	=93	=93	=93	=93	=93	=93	=93
8b	know	1Amm	newline	voice	.	176.199	A:min7
8a	that	.	.	.	.	.	.
8g	I	.	.	.	.	.	.
8gq	_	.	.	.	.	.	.
4a	should	.	.	.	.	.	.
8g	be	.	.	.	.	.	.
8e	_	.	.	.	.	.	.
8gq	_	.	.	.	.	.	.
[8a	run	.	.	.	.	.	.
=94	=94	=94	=94	=94	=94	=94	=94
8a]	_	1Amm	.	voice	.	178.101	A:min7
4g	ning	.	.	.	.	.	.
8r	.	.	.	.	.	.	.
8r	.	.	.	.	.	.	.
8B	my	.	.	.	.	.	.
4e	heart's	.	.	.	.	.	.
=95	=95	=95	=95	=95	=95	=95	=95
8e	bea-	1Emm	.	voice	.	180.002	E:min7
8d	-ting	.	.	.	.	.	.
8r	.	.	.	.	.	.	.
[8e	just	.	.	.	.	.	.
8e]	_	.	.	.	.	.	.
8e	like	.	.	.	.	.	.
8r	.	.	.	.	.	.	.
8d	a	.	.	.	.	.	.
=96	=96	=96	=96	=96	=96	=96	=96
8e	drum	1Emm	.	voice	B	181.904	E:min7
8B	_	.	.	.	.	.	.
4r	.	.	.	.	.	.	.
4r	.	.	.	.	.	.	.
8B	Now	.	.	.	.	.	.
8B	they've	.	.	.	.	.	.
=97	=97	=97	=97	=97	=97	=97	=97
16gQ	_	.	.	.	.	.	.
16aQ	_	.	.	.	.	.	.
4b	knocked	1Amm	newline	voice	.	183.806	A:min7
8g	me	.	.	.	.	.	.
8gq	_	.	.	.	.	.	.
[8a	down	.	.	.	.	.	.
8a]	_	.	.	.	.	.	.
4r	.	.	.	.	.	.	.
8g	and	.	.	.	.	.	.
=98	=98	=98	=98	=98	=98	=98	=98
8g	ta-	1Amm	.	voice	.	185.715	A:min7
8e	-ken	.	.	.	.	.	.
4e	it	.	.	.	.	.	.
4r	.	.	.	.	.	.	.
8r	.	.	.	.	.	.	.
8E	that	.	.	.	.	.	.
=99	=99	=99	=99	=99	=99	=99	=99
8Aq	_	.	.	.	.	.	.
4B-	still-	2B-M	.	voice	.	187.623	B-:1
4A	-hot	.	.	.	.	.	.
8A	smo	2Amm	.	voice	.	188.578	A:1
8G	_	.	.	.	.	.	.
8E	king	.	.	.	.	.	.
8G	gun	.	.	.	B	.	.
=100	=100	=100	=100	=100	=100	=100	=100
*>Letter>A	*>Letter>A	*>Letter>A	*>Letter>A	*>Letter>A	*>Letter>A	*>Letter>A	*>Letter>A
*>Label>Outro	*>Label>Outro	*>Label>Outro	*>Label>Outro	*>Label>Outro	*>Label>Outro	*>Label>Outro	*>Label>Outro
4.E	_	1Emm	newline	guitar	.	189.532	E:min7
8r	.	.	.	.	.	.	.
2r	.	.	.	.	.	.	.
=101	=101	=101	=101	=101	=101	=101	=101
2r	.	1Emm	.	guitar	.	191.451	E:min7
4r	.	.	.	.	.	.	.
8r	.	.	.	.	.	.	.
[8e	Yeah,	.	.	.	.	.	.
=102	=102	=102	=102	=102	=102	=102	=102
2e]	_	1Emm	.	guitar	.	193.369	E:min7
4e	yeah	.	.	.	.	.	.
4r	.	.	.	.	.	.	.
=103	=103	=103	=103	=103	=103	=103	=103
8Aq	_	.	.	.	.	.	.
4B-	Still-	1Emm	.	guitar	.	195.288	E:min7
4A	-hot	.	.	.	.	.	.
8A	smo	.	.	.	.	.	.
8G	_	.	.	.	.	.	.
8E	king	.	.	.	.	.	.
[8G	gun	.	.	.	B	.	.
=104	=104	=104	=104	=104	=104	=104	=104
4.G]	_	1Emm	newline	guitar	.	197.206	E:min7
8r	.	.	.	.	.	.	.
2r	.	.	.	.	.	.	.
=105	=105	=105	=105	=105	=105	=105	=105
2r	.	1Emm	.	guitar	.	199.119	E:min7
4r	.	.	.	.	.	.	.
8r	.	.	.	.	.	.	.
8B	They've	.	.	.	.	.	.
=106	=106	=106	=106	=106	=106	=106	=106
8g	ta-	1Emm	.	guitar	.	201.032	E:min7
8e	-ken	.	.	.	.	.	.
4e	it	.	.	.	.	.	.
2r	.	.	.	.	.	.	.
=107	=107	=107	=107	=107	=107	=107	=107
8Aq	_	.	.	.	.	.	.
4B-	Still-	1Emm	.	guitar	.	202.944	E:min7
4A	-hot	.	.	.	.	.	.
8A	smo	.	.	.	.	.	.
8G	_	.	.	.	.	.	.
8E	king	.	.	.	.	.	.
8G	gun	.	.	.	B	.	.
=108	=108	=108	=108	=108	=108	=108	=108
4.E	_	1Emm	newline	guitar	.	204.857	E:min7
8r	.	.	.	.	.	.	.
2r	.	.	.	.	.	.	.
=109	=109	=109	=109	=109	=109	=109	=109
4r	.	1Emm	.	guitar	.	206.767	E:min7
8r	.	.	.	.	.	.	.
16gQ	_	.	.	.	.	.	.
16aQ	_	.	.	.	.	.	.
8b	Oh,	.	.	.	.	.	.
4a	_	.	.	.	.	.	.
8g	they've	.	.	.	.	.	.
8a	ta-	.	.	.	.	.	.
=110	=110	=110	=110	=110	=110	=110	=110
8e	-ken	1Emm	.	guitar	.	208.676	E:min7
4.e	it	.	.	.	.	.	.
4r	.	.	.	.	.	.	.
8r	.	.	.	.	.	.	.
8a#q	_	.	.	.	.	.	.
8BB	That	.	.	.	.	.	.
=111	=111	=111	=111	=111	=111	=111	=111
8Aq	_	.	.	.	.	.	.
4B-	still-	1Emm	.	guitar	.	210.586	E:min7
4A	-hot	.	.	.	.	.	.
8A	smo	.	.	.	.	.	.
8G	_	.	.	.	.	.	.
8E	king	.	.	.	.	.	.
8G	gun	.	.	.	B	.	.
=112	=112	=112	=112	=112	=112	=112	=112
4.E	_	1Emm	newline	guitar	.	212.495	E:min7
8r	.	.	.	.	.	.	.
4r	.	.	.	.	.	.	.
8r	.	.	.	.	.	.	.
8B	They've	.	.	.	.	.	.
=113	=113	=113	=113	=113	=113	=113	=113
8f#q	_	.	.	.	.	.	.
8g	knocked	1Emm	.	guitar	.	214.396	E:min7
8g	me	.	.	.	.	.	.
4g	down	.	.	.	.	.	.
4r	.	.	.	.	.	.	.
8r	.	.	.	.	.	.	.
8B	And	.	.	.	.	.	.
=114	=114	=114	=114	=114	=114	=114	=114
8f#q	_	.	.	.	.	.	.
8g	ta-	1Emm	.	guitar	.	216.297	E:min7
8g	-ken	.	.	.	.	.	.
8f#q	_	.	.	.	.	.	.
4g	it	.	.	.	.	.	.
2r	.	.	.	.	.	.	.
=115	=115	=115	=115	=115	=115	=115	=115
8r	.	1Emm	.	guitar	.	218.198	E:min7
16g	Oh	.	.	.	.	.	.
[16a	_	.	.	.	.	.	.
4a_	_	.	.	.	.	.	.
4a]	_	.	.	.	.	.	.
8g	(vocalising)	.	.	.	.	.	.
8g	_	.	.	.	.	.	.
=116	=116	=116	=116	=116	=116	=116	=116
8e	_	1Emm	newline	guitar	.	220.098	E:min7
8e	_	.	.	.	.	.	.
4r	.	.	.	.	.	.	.
2r	.	.	.	.	.	.	.
=117	=117	=117	=117	=117	=117	=117	=117
1r	.	1Emm	.	guitar	.	222.013	E:min7
=118	=118	=118	=118	=118	=118	=118	=118
1r	.	1Emm	.	guitar	.	223.927	E:min7
=119	=119	=119	=119	=119	=119	=119	=119
4r	.	1Emm	.	guitar	.	225.842	E:min7
8r	.	.	.	.	.	.	.
[8ee	Oh!	.	.	.	.	.	.
2ee_	_	.	.	.	.	.	.
=120	=120	=120	=120	=120	=120	=120	=120
*>Label>>Fadeout	*>Label>>Fadeout	*>Label>>Fadeout	*>Label>>Fadeout	*>Label>>Fadeout	*>Label>>Fadeout	*>Label>>Fadeout	*>Label>>Fadeout
4.ee]	_	1Emm	newline	guitar	.	227.756	E:min7
8ddq	_	.	.	.	.	.	.
8ee	_	.	.	.	.	.	.
2r	.	.	.	.	.	.	.
=121	=121	=121	=121	=121	=121	=121	=121
1r	.	1Emm	.	guitar	.	229.657	E:min7
=122	=122	=122	=122	=122	=122	=122	=122
1r	.	1Emm	.	guitar	.	231.558	E:min7
=123	=123	=123	=123	=123	=123	=123	=123
1r	.	1Emm	.	guitar	.	233.459	E:min7
=124	=124	=124	=124	=124	=124	=124	=124
1r	.	1Emm	.	guitar	.	235.36	E:min7
r;	.	1r;	.	r	.	237.261	N.C.
r;	.	1r;	.	r	.	240.797	N.C.
*-	*-	*-	*-	*-	*-	*-	*-
!!!BillboardChartDate: 1987/03/07, 1987/03/07
!!!BillboardPeak: 22, 22
!!!BillboardWeeksOnChart: 14, 14
!!!COC: The Robert Cray Band
!!!ENC: Nathaniel Condit-Schultz
!!!EST: Awating manual error checking and editing.
!!!OTL: Smoking Gun
!!!RDF**chordsym: original McGill chord annotation + (implied pitch class set, with bass pitch in first position)
!!!RDF**harmony: **recip + pitch class of root + harmonic quality
!!!RDF**leadinstrument: original McGill primary instrumentation annotation
!!!RDF**phrase: newline = linebreak in original McGill transcription
!!!RDF**timestamp: McGill audio timestamp in seconds
!!!RDT: 2017/01/12/
!!!SampleActualRank: 56, 56
!!!SampleID#: 55, 329
!!!SampleTargetRank: 56, 58
